src/icons/svg/setting.svg

<?xml version="1.0" encoding="UTF-8"?>
<svg width="40px" height="40px" viewBox="0 0 40 40" version="1.1" xmlns="http://www.w3.org/2000/svg"
>
    <path d="M36.095628,10.8179904 C35.0861181,11.1808425 34.0556562,11.2617937 33.0080516,11.0132257 C31.5108407,10.6692124 30.2340502,9.69759037 29.503412,8.3462379 C28.7727739,6.99488543 28.6589437,5.39448357 29.1909616,3.95332343 C29.2690557,3.73713593 29.2290563,3.64285152 29.0300114,3.55332896 C28.2300225,3.19142919 27.4433668,2.79810133 26.6338541,2.45810603 C26.1014805,2.23525198 25.5386312,2.0838255 25.0043529,1.90573274 C23.9710338,4.03332236 22.3501039,5.24854363 20.0015649,5.24854363 C17.6435024,5.24854363 16.0168582,4.02951286 15.0025865,1.92097061 C13.5124275,2.32829569 12.0795631,2.92185609 10.7378836,3.68761282 C11.5064444,5.89710604 11.2254959,7.91231628 9.55313809,9.57705516 C7.88458975,11.2379845 5.87033191,11.5284567 3.67036235,10.7503722 C2.90567185,12.0921234 2.3124694,13.5245761 1.90467249,15.0141228 C3.99988158,16.0255374 5.2170076,17.6331342 5.23129311,19.9692923 C5.24557863,22.3425928 4.02654786,23.9768559 1.90372009,25.0035084 C2.3112361,26.4940471 2.90579516,27.9270048 3.67321945,29.2682113 C5.80747563,28.5186979 7.76554376,28.7605992 9.41599713,30.3062921 C11.199782,31.9776976 11.5264441,34.0395738 10.7397883,36.3300183 C12.0802596,37.0970709 13.5134996,37.6891866 15.0044912,38.0918987 C16.0330484,35.9776422 17.6539784,34.7671828 20.0034697,34.7681352 C22.3643894,34.7709923 23.9862717,35.997642 24.9986387,38.0957081 C26.4882541,37.6876965 27.9204818,37.0934948 29.2614368,36.3271612 C28.4852571,34.117668 28.7785864,32.1129338 30.4328492,30.4510521 C32.0975881,28.780599 34.1127983,28.4967934 36.3280057,29.2663065 C37.0944653,27.9256517 37.6871568,26.4928872 38.0917908,25.002556 C35.958487,23.9663799 34.7442181,22.3264025 34.7651702,19.9550068 C34.7851699,17.6312294 35.9956294,16.0283945 38.0936955,15.0150751 C37.6958891,13.5687502 37.1261169,12.1753342 36.3965762,10.8646564 C36.3051489,10.6989444 36.2041979,10.7789433 36.0946756,10.817038 L36.095628,10.8179904 Z M39.9327177,14.5141297 C40.1740648,15.3995862 39.7496734,16.3312453 38.9232079,16.7302895 C37.3784673,17.4769458 36.6832389,18.4778844 36.6708581,19.9721494 C36.6575249,21.5026044 37.351801,22.5254474 38.9251126,23.2892464 C39.7482926,23.6888785 40.1709677,24.6174041 39.9317653,25.5006443 C39.4843093,27.1464931 38.8292145,28.7287056 37.9822685,30.2091506 C37.5279124,31.0061403 36.5699821,31.3660147 35.7032524,31.0653293 C34.0670846,30.4967657 32.8528157,30.7224769 31.7833067,31.7957953 C30.7157024,32.8681614 30.4909436,34.0767161 31.0595072,35.6966938 C31.3641778,36.5639448 31.0060131,37.5250602 30.2080904,37.981424 C28.72866,38.8265643 27.1486121,39.4818778 25.5052983,39.9318732 C24.6182886,40.1764744 23.6832319,39.7520316 23.2834243,38.9233158 C22.5367679,37.3747658 21.5196392,36.6747754 20.0025173,36.6738231 C18.4882525,36.6728707 17.4758856,37.3661944 16.7178008,38.9252205 C16.3192535,39.7444398 15.3964042,40.1667471 14.5159266,39.9328256 C12.8678687,39.4887062 11.2835477,38.8351337 9.80170608,37.9880906 C9.0035529,37.5360989 8.64090197,36.5794369 8.93886088,35.7119316 C9.5207576,34.016717 9.26838011,32.7776865 8.11411037,31.6967491 C7.06079159,30.7100961 5.87795082,30.512956 4.30463928,31.0653293 C3.43789771,31.3696373 2.47744354,31.0119702 2.02086133,30.2148648 C1.17408879,28.734326 0.518092312,27.1525745 0.0685074073,25.5073109 C-0.174827472,24.6216774 0.248495599,23.6885244 1.07516013,23.288294 C2.64085275,22.532114 3.33703361,21.5111757 3.32750995,19.9816731 C3.31798628,18.4797891 2.62275778,17.4750411 1.07801723,16.7293371 C0.251682663,16.3310842 -0.173420804,15.4004198 0.0666026569,14.5150821 C0.515194327,12.8723248 1.16822698,11.2923762 2.01038531,9.81228999 C2.46513802,9.00689653 3.43275213,8.64459353 4.30463928,8.95325424 C5.91604556,9.52372255 7.13126682,9.29801139 8.20934713,8.22564529 C9.28076088,7.1589934 9.50551969,5.94567684 8.93790848,4.31141374 C8.63722304,3.4446841 8.99709744,2.48675371 9.79408712,2.03239764 C11.2741995,1.18751326 12.8548848,0.532520796 14.4987839,0.0829008193 C15.3856184,-0.159710506 16.3191791,0.265800829 16.7178008,1.0943154 C17.4644571,2.64477015 18.4815859,3.34380806 20.0006125,3.34285571 C21.513925,3.34285571 22.5262919,2.6457225 23.2891385,1.07336328 C23.7067973,0.21283086 24.6978933,-0.204472732 25.6052969,0.0981386889 C25.7176763,0.135281032 25.828151,0.170518625 26.0195769,0.230517795 L26.3557627,0.335278265 C26.7557572,0.463847914 27.0605149,0.571465488 27.369082,0.70098749 C27.8224091,0.890508663 28.1766899,1.0524112 28.9328699,1.40764436 C29.3823875,1.61907001 29.5757182,1.70859257 29.8138101,1.81621014 C30.9309375,2.32096507 31.3918835,3.4599969 30.981413,4.59902878 C30.2671372,6.57900138 31.3985501,8.67135337 33.4480455,9.15896568 C34.1089888,9.31610636 34.7613607,9.27229746 35.450875,9.02372947 C35.5157259,8.99485575 35.5825629,8.97066714 35.6508722,8.95134954 C35.886107,8.8789696 36.1365798,8.84182726 36.4241949,8.86468404 C37.1765654,8.92468321 37.7422718,9.35991527 38.0641722,9.94371674 C38.8667185,11.3868201 39.4934017,12.920915 39.930813,14.5131773 L39.9327177,14.5141297 Z M20.4758441,11.4294037 C16.3101446,11.4296853 12.6830197,14.2742611 11.6898491,18.3198345 C10.6966786,22.3654079 12.5941828,26.566256 16.2861789,28.4955607 C19.9781751,30.4248654 24.5103349,29.5839289 27.2644425,26.4585579 C30.0185501,23.333187 30.2827079,18.7312453 27.9043127,15.3112615 C27.600929,14.8874951 27.0132723,14.7862952 26.5856153,15.0841697 C26.1579583,15.3820441 26.049162,15.9683419 26.3414772,16.3998179 C28.3705667,19.3211199 27.9410993,23.2901987 25.3341,25.7098606 C22.7271007,28.1295226 18.7370654,28.2623638 15.9749007,26.0214587 C13.212736,23.7805536 12.5202253,19.8488291 14.3505177,16.7990358 C16.18081,13.7492425 19.9761148,12.5108199 23.2529485,13.8941383 C23.7376374,14.0987438 24.296421,13.8716913 24.5010265,13.3870024 C24.705632,12.9023135 24.4785795,12.34353 23.9938906,12.1389244 C22.8805577,11.6692051 21.6842084,11.4279273 20.4758441,11.4294037 Z"
          id="形状"></path>
</svg>

<svg width="40" height="40" xmlns="http://www.w3.org/2000/svg"><path d="M36.096 10.818c-1.01.363-2.04.444-3.088.195a5.345 5.345 0 0 1-3.817-7.06c.078-.216.038-.31-.161-.4-.8-.362-1.587-.755-2.396-1.095-.533-.223-1.095-.374-1.63-.552-1.033 2.127-2.654 3.343-5.002 3.343-2.358 0-3.985-1.22-5-3.328-1.49.407-2.922 1-4.264 1.767.768 2.21.487 4.224-1.185 5.89-1.668 1.66-3.683 1.95-5.883 1.172a18.45 18.45 0 0 0-1.765 4.264C4 16.026 5.217 17.634 5.23 19.97c.015 2.374-1.204 4.008-3.327 5.035a18.31 18.31 0 0 0 1.77 4.264c2.133-.75 4.092-.507 5.742 1.038 1.784 1.672 2.11 3.734 1.324 6.024 1.34.767 2.773 1.36 4.264 1.762 1.029-2.114 2.65-3.325 5-3.324 2.36.003 3.982 1.23 4.995 3.328a18.374 18.374 0 0 0 4.262-1.769c-.776-2.21-.482-4.214 1.172-5.876 1.665-1.67 3.68-1.954 5.895-1.185a18.198 18.198 0 0 0 1.764-4.263c-2.134-1.037-3.348-2.677-3.327-5.048.02-2.324 1.23-3.927 3.329-4.94a18.767 18.767 0 0 0-1.697-4.15c-.092-.166-.193-.086-.302-.048v.001zm3.837 3.696a1.905 1.905 0 0 1-1.01 2.216c-1.545.747-2.24 1.748-2.252 3.242-.013 1.53.68 2.553 2.254 3.317a1.905 1.905 0 0 1 1.007 2.212 20.103 20.103 0 0 1-1.95 4.708 1.905 1.905 0 0 1-2.279.856c-1.636-.568-2.85-.343-3.92.73-1.067 1.073-1.292 2.282-.723 3.902a1.905 1.905 0 0 1-.852 2.284c-1.48.846-3.06 1.5-4.703 1.95a1.905 1.905 0 0 1-2.222-1.008c-.746-1.548-1.763-2.248-3.28-2.25-1.515 0-2.527.693-3.285 2.252a1.905 1.905 0 0 1-2.202 1.008 19.97 19.97 0 0 1-4.714-1.945 1.905 1.905 0 0 1-.863-2.276c.582-1.695.33-2.934-.825-4.015-1.053-.987-2.236-1.184-3.81-.632a1.905 1.905 0 0 1-2.283-.85 20.215 20.215 0 0 1-1.952-4.708 1.905 1.905 0 0 1 1.006-2.219c1.566-.756 2.262-1.777 2.253-3.306-.01-1.502-.705-2.507-2.25-3.253a1.905 1.905 0 0 1-1.011-2.214A20.348 20.348 0 0 1 2.01 9.812a1.905 1.905 0 0 1 2.295-.859c1.611.57 2.826.345 3.904-.727 1.072-1.067 1.297-2.28.729-3.915-.3-.866.06-1.824.856-2.279 1.48-.844 3.06-1.5 4.705-1.95a1.905 1.905 0 0 1 2.219 1.012c.746 1.55 1.764 2.25 3.283 2.249 1.513 0 2.525-.697 3.288-2.27a1.905 1.905 0 0 1 2.316-.975c.113.037.223.073.415.133l.336.104c.4.129.705.236 1.013.366.453.19.808.351 1.564.707.45.211.643.3.88.408 1.118.505 1.579 1.644 1.168 2.783a3.441 3.441 0 0 0 2.467 4.56c.661.157 1.313.113 2.003-.135a2.025 2.025 0 0 1 .973-.159c.753.06 1.318.495 1.64 1.079a20.664 20.664 0 0 1 1.867 4.57h.002zM20.476 11.43a9.048 9.048 0 1 0 7.428 3.882.952.952 0 0 0-1.563 1.089 7.143 7.143 0 1 1-3.088-2.506.953.953 0 0 0 .74-1.755 9.022 9.022 0 0 0-3.517-.71z"/></svg>
